X:1
T: Miss Ann Campbell
C:Dan R. MacDonald
R:Jig
Q:180
K:Bb
M:6/8
L:1/16
|:C2|B,2D2F2 B4F2|G2B2G2 F2D2B,2|B,2D2F2 B2d2B2|c2b2g2 f2d2B2|
B,2D2F2 B4F2|G2B2G2 F2D2B,2|B,2D2F2 B2d2B2|G2c2A2 B4:|
|:g2|f2d2B2 D2F2B2|E2G2B2 F2D2B,2|f2d2B2 B2d2f2|g2f2d2 c4f2|
|1d2d2B2 D2F2B2|E2G2B2 D2F2B2|A2g2f2 e2d2c2|d2B2B2 B4:|
|2f2d2b2 f2d2B2|F2B2d2 e2d2c2|d2B2F2 G2B2G2|F2D2B,2 B,4||
